X:1
T:Title
%%score ( 1 2 ) ( 3 4 )
L:1/8
Q:1/4=100
M:4/4
K:D
V:1 treble nm="Midi_20"
V:2 treble 
V:3 bass nm="Midi_20"
V:4 bass 
V:1
"^St Constantine (65. 65)""^William Henry Monk\n(1823-89)""^Jesus, meek and gentle""^George Rundle Prynne\n(1818-1903)" F2 E2 G2 F2 | %1
 E4 D4 | E2 A2 ^G2 B2 | A8 || G2 F2 B2 A2 | G4 F4 | F2 E2 G2 G2 | F8 || %8
"^last verse only" F2 E2 G2 G2 | F8 |] %10
V:2
 D2 C2 D2 D2 | C4 D4 | A,2 E2 E2 D2 | C8 || E2 D2 D2 D2 | C4 D4 | D2 E2 D2 E2 | C8 || D2 E2 D2 D2 | %9
 D8 |] %10
V:3
"^1. Jesus, meek and gentle,\nSon of God most high,\nPitying, loving Saviour,\nHear Thy children's cry.\n\n2. Pardon our offences,\nLoose our captive chains,\nBreak down every idol\nWhich our soul detains.\n\n3. Give us holy freedom,\nFill our hearts with love,\nDraw us, holy Jesus,\nTo the realms above." A,2 A,2 G,2 A,2 | %1
 G,4 F,4 | A,2 C2 B,2 ^G,2 | A,8 || %4
"^4. Lead us on our journey,\nBe Thyself the Way\nThrough terrestrial darkness\nTo celestial day.\n\n5. Jesus, meek and gentle,\nSon of God most high,\nPitying, loving Saviour,\nHear Thy children's cry." A,2 A,2 G,2 A,2 | %5
 A,4 A,4 | A,2 A,2 B,2 B,2 | ^A,8 || A,2 A,2 B,2 B,2 | A,8 |] %10
V:4
 D,2 A,,2 B,,2 D,2 | A,,4 D,4 | C,2 A,,2 E,2 E,2 | A,,8 || C,2 D,2 G,2 F,2 | E,4 D,4 | %6
 D,2 C,2 B,,2 E,2 | F,8 || D,2 C,2 B,,2 G,,2 | D,8 |] %10

